frontend/src/images/home/underline.svg

<svg width="128" height="7" viewBox="0 0 128 7" fill="none" xmlns="http://www.w3.org/2000/svg">
<mask id="mask0_944_524" style="mask-type:luminance" maskUnits="userSpaceOnUse" x="65" y="0" width="63" height="7">
<path d="M65.2773 0.787109H127.569V6.97461H65.2773V0.787109Z" fill="white"/>
</mask>
<g mask="url(#mask0_944_524)">
<path d="M127.339 3.55054H90.079L68.1322 0.867676L66.2754 3.88086L68.1322 6.88599L90.079 4.21118H127.364C127.469 4.21118 127.569 4.08227 127.569 3.88086C127.569 3.67139 127.469 3.55054 127.339 3.55054Z" fill="black"/>
</g>
<mask id="mask1_944_524" style="mask-type:luminance" maskUnits="userSpaceOnUse" x="0" y="0" width="62" height="7">
<path d="M0.111328 0.787109H61.4447V6.97461H0.111328V0.787109Z" fill="white"/>
</mask>
<g mask="url(#mask1_944_524)">
<path d="M37.5762 3.55054H0.315972C0.186199 3.55054 0.111328 3.71167 0.111328 3.88086C0.111328 4.04199 0.186199 4.21118 0.315972 4.21118H37.5762L59.518 6.88599L61.3798 3.88086L59.518 0.867676L37.5762 3.55054Z" fill="black"/>
</g>
<mask id="mask2_944_524" style="mask-type:luminance" maskUnits="userSpaceOnUse" x="61" y="0" width="6" height="7">
<path d="M61.4453 0.787109H66.5564V6.97461H61.4453V0.787109Z" fill="white"/>
</mask>
<g mask="url(#mask2_944_524)">
<path d="M65.4076 3.88086C65.4076 4.21924 65.3676 4.5415 65.2878 4.85571C65.2079 5.16992 65.0931 5.44385 64.9434 5.68555C64.7986 5.92725 64.6239 6.11255 64.4342 6.24146C64.2396 6.37036 64.0349 6.43481 63.8253 6.43481C63.6157 6.43481 63.416 6.37036 63.2214 6.24146C63.0317 6.11255 62.857 5.92725 62.7122 5.68555C62.5625 5.44385 62.4477 5.16992 62.3678 4.85571C62.288 4.5415 62.248 4.21924 62.248 3.88086C62.248 3.53442 62.288 3.21216 62.3678 2.89795C62.4477 2.58374 62.5625 2.30981 62.7122 2.06812C62.857 1.82641 63.0317 1.64111 63.2214 1.51221C63.416 1.3833 63.6157 1.31885 63.8253 1.31885C64.0349 1.31885 64.2396 1.3833 64.4342 1.51221C64.6239 1.64111 64.7986 1.82641 64.9434 2.06812C65.0931 2.30981 65.2079 2.58374 65.2878 2.89795C65.3676 3.21216 65.4076 3.53442 65.4076 3.88086Z" fill="black"/>
</g>
</svg>

<svg xmlns="http://www.w3.org/2000/svg" width="128" height="7" fill="none"><mask id="a" width="63" height="7" x="65" y="0" maskUnits="userSpaceOnUse" style="mask-type:luminance"><path fill="#fff" d="M65.277.787h62.292v6.188H65.277V.787Z"/></mask><g mask="url(#a)"><path fill="#000" d="M127.339 3.55h-37.26L68.132.869 66.275 3.88l1.857 3.005L90.08 4.211h37.285c.105 0 .205-.129.205-.33 0-.21-.1-.33-.23-.33Z"/></g><mask id="b" width="62" height="7" x="0" y="0" maskUnits="userSpaceOnUse" style="mask-type:luminance"><path fill="#fff" d="M.111.787h61.334v6.188H.11V.787Z"/></mask><g mask="url(#b)"><path fill="#000" d="M37.576 3.55H.316c-.13 0-.205.162-.205.33 0 .162.075.331.205.331h37.26l21.942 2.675 1.862-3.005L59.518.868 37.576 3.55Z"/></g><mask id="c" width="6" height="7" x="61" y="0" maskUnits="userSpaceOnUse" style="mask-type:luminance"><path fill="#fff" d="M61.445.787h5.111v6.188h-5.11V.787Z"/></mask><g mask="url(#c)"><path fill="#000" d="M65.408 3.88c0 .34-.04.662-.12.976a2.93 2.93 0 0 1-.345.83 1.75 1.75 0 0 1-.509.555c-.194.13-.4.194-.609.194-.21 0-.409-.065-.604-.194a1.75 1.75 0 0 1-.509-.555 2.93 2.93 0 0 1-.344-.83 3.93 3.93 0 0 1-.12-.975c0-.347.04-.669.12-.983a2.93 2.93 0 0 1 .344-.83c.145-.242.32-.427.51-.556.194-.129.394-.193.603-.193.21 0 .415.064.61.193.189.13.364.314.508.556.15.242.265.516.345.83.08.314.12.636.12.983Z"/></g></svg>
